swiss/communes/5859.svg

<?xml version="1.0" encoding="UTF-8" standalone="no"?>
<svg
   xmlns:dc="http://purl.org/dc/elements/1.1/"
   xmlns:cc="http://creativecommons.org/ns#"
   xmlns:rdf="http://www.w3.org/1999/02/22-rdf-syntax-ns#"
   xmlns:svg="http://www.w3.org/2000/svg"
   xmlns="http://www.w3.org/2000/svg"
   xmlns:xlink="http://www.w3.org/1999/xlink"
   xmlns:sodipodi="http://sodipodi.sourceforge.net/DTD/sodipodi-0.dtd"
   xmlns:inkscape="http://www.inkscape.org/namespaces/inkscape"
   height="763"
   width="603"
   version="1.0"
   id="svg20"
   sodipodi:version="0.32"
   inkscape:version="0.46"
   sodipodi:docname="Mont-sur-Rolle-coat_of_arms.svg"
   sodipodi:docbase="C:\Documents and Settings\Steve\Bureau\Blason Villages Suisse pour Wikipédia (par Delta-9)"
   inkscape:output_extension="org.inkscape.output.svg.inkscape">
  <metadata
     id="metadata31">
    <rdf:RDF>
      <cc:Work
         rdf:about="">
        <dc:format>image/svg+xml</dc:format>
        <dc:type
           rdf:resource="http://purl.org/dc/dcmitype/StillImage" />
        <dc:date>07-AUG-2006</dc:date>
        <dc:creator>
          <cc:Agent>
            <dc:title>Jérôme BLUM (wagner51)</dc:title>
          </cc:Agent>
        </dc:creator>
        <cc:license
           rdf:resource="http://creativecommons.org/licenses/GPL/2.0/" />
        <dc:coverage />
        <dc:description>Gabarit pour le Projet:Blasons de WIkipédia</dc:description>
        <dc:subject>
          <rdf:Bag>
            <rdf:li>blason suisse modèle gabarit projet blasons</rdf:li>
          </rdf:Bag>
        </dc:subject>
        <dc:language>fr</dc:language>
        <dc:title>Gabrit d'un blason suisse</dc:title>
      </cc:Work>
      <cc:License
         rdf:about="http://creativecommons.org/licenses/GPL/2.0/">
        <cc:permits
           rdf:resource="http://web.resource.org/cc/Reproduction" />
        <cc:permits
           rdf:resource="http://web.resource.org/cc/Distribution" />
        <cc:requires
           rdf:resource="http://web.resource.org/cc/Notice" />
        <cc:permits
           rdf:resource="http://web.resource.org/cc/DerivativeWorks" />
        <cc:requires
           rdf:resource="http://web.resource.org/cc/ShareAlike" />
        <cc:requires
           rdf:resource="http://web.resource.org/cc/SourceCode" />
      </cc:License>
    </rdf:RDF>
  </metadata>
  <defs
     id="defs29"><inkscape:perspective
   sodipodi:type="inkscape:persp3d"
   inkscape:vp_x="0 : 381.5 : 1"
   inkscape:vp_y="0 : 1000 : 0"
   inkscape:vp_z="603 : 381.5 : 1"
   inkscape:persp3d-origin="301.5 : 254.33333 : 1"
   id="perspective28" />
<linearGradient
   id="linearGradient2893">
  <stop
     style="stop-color:#ffffff;stop-opacity:0.3137255;"
     offset="0"
     id="stop2895" />
  <stop
     id="stop2897"
     offset="0.19"
     style="stop-color:#ffffff;stop-opacity:0.25098041;" />
  <stop
     style="stop-color:#6b6b6b;stop-opacity:0.1254902;"
     offset="0.60000002"
     id="stop2901" />
  <stop
     style="stop-color:#000000;stop-opacity:0.1254902;"
     offset="1"
     id="stop2899" />
</linearGradient>
<linearGradient
   id="linearGradient2955">
  <stop
     style="stop-color:white;stop-opacity:0;"
     offset="0"
     id="stop2965" />
  <stop
     style="stop-color:black;stop-opacity:0.64583331;"
     offset="1"
     id="stop2959" />
</linearGradient>
<radialGradient
   inkscape:collect="always"
   xlink:href="#linearGradient2893"
   id="radialGradient3236"
   gradientUnits="userSpaceOnUse"
   gradientTransform="matrix(1.215027,1.531577e-24,1.464684e-23,1.266667,-839.1924,-490.4894)"
   cx="858.04236"
   cy="579.93323"
   fx="858.04236"
   fy="579.93323"
   r="300" />
<inkscape:perspective
   id="perspective2574"
   inkscape:persp3d-origin="297.63751 : 280.63 : 1"
   inkscape:vp_z="595.27502 : 420.94501 : 1"
   inkscape:vp_y="0 : 1000 : 0"
   inkscape:vp_x="0 : 420.94501 : 1"
   sodipodi:type="inkscape:persp3d" />

	
	

	
	

		
		
		
	
		
		
	</defs>
  <sodipodi:namedview
     inkscape:window-height="914"
     inkscape:window-width="1240"
     inkscape:pageshadow="2"
     inkscape:pageopacity="0.0"
     guidetolerance="10.0"
     gridtolerance="10.0"
     objecttolerance="10.0"
     borderopacity="1.0"
     bordercolor="#666666"
     pagecolor="#ffffff"
     id="base"
     inkscape:zoom="0.74716932"
     inkscape:cx="266.08083"
     inkscape:cy="419.9589"
     inkscape:window-x="25"
     inkscape:window-y="33"
     inkscape:current-layer="layer2"
     showgrid="false"
     showguides="true"
     inkscape:guide-bbox="true">
    <sodipodi:guide
       orientation="horizontal"
       position="761.5"
       id="guide1885" />
    <sodipodi:guide
       orientation="vertical"
       position="1.5"
       id="guide1887" />
    <sodipodi:guide
       orientation="horizontal"
       position="1.5"
       id="guide1889" />
    <sodipodi:guide
       orientation="vertical"
       position="601.5"
       id="guide1891" />
    <sodipodi:guide
       orientation="vertical"
       position="301.50081"
       id="guide1893" />
  </sodipodi:namedview>
  <desc
     id="desc22">Coat of Arms of Canton of Freiburg (Fribourg)</desc>
  <g
     inkscape:groupmode="layer"
     id="layer1"
     inkscape:label="Fond écu"
     style="opacity:1;display:inline"
     sodipodi:insensitive="true">
    <path
       d="M 1.499997,1.5 L 1.499997,460.369 C 1.499997,626.68 135.814,761.5 301.5,761.5 C 467.187,761.5 601.5,626.68 601.5,460.369 L 601.5,1.5 L 1.499997,1.5 z"
       id="path2507"
       style="opacity:1;fill:#fcef3c" />
    <path
       id="path2558"
       d="M 1.499997,1.5 L 1.499997,460.369 C 1.499997,510.526 13.731997,557.81 35.341997,599.405 L 601.498,1.5 L 1.499997,1.5 z"
       style="opacity:1;fill:#5ab532" />
  </g>
  <g
     inkscape:groupmode="layer"
     id="layer2"
     inkscape:label="Meubles"
     style="opacity:1;display:inline"
     sodipodi:insensitive="true">
    <path
       style="fill:#5ab532"
       id="path2519"
       d="M 301.498,565.302 C 267.795,565.302 237.908,587.417 219.299,621.515 C 211.634,635.56 206.479,651.765 202.569,669.048 C 200.375,678.747 194.372,713.534 189.897,739.954 C 224.396,753.843 262.055,761.499 301.499,761.499 C 340.943,761.499 378.603,753.843 413.103,739.956 C 408.627,713.534 402.624,678.747 400.43,669.048 C 396.52,651.765 391.365,635.56 383.7,621.515 C 365.09,587.417 335.201,565.302 301.498,565.302 z" />
    <path
       style="fill:none;stroke:#000000;stroke-width:3"
       id="path2521"
       d="M 413.102,739.956 C 408.626,713.534 402.623,678.747 400.429,669.048 C 396.519,651.765 391.364,635.56 383.699,621.515 C 365.092,587.417 335.203,565.302 301.5,565.302 C 267.797,565.302 237.91,587.417 219.301,621.515 C 211.636,635.56 206.481,651.765 202.571,669.048 C 200.377,678.747 194.374,713.534 189.899,739.954" />
    <path
       style="fill:#e20909"
       id="path2489"
       d="M 601.498,126.832 L 601.498,1.5 L 481.498,1.5 L 4.770997,504.9 C 14.221997,568.89 43.729997,626.308 86.670997,670.529 L 601.498,126.832 L 601.498,126.832 z" />
    <path
       style="fill:none;stroke:#000000;stroke-width:3"
       id="path2491"
       d="M 481.498,1.5 L 4.770997,504.9" />
    <path
       style="fill:none;stroke:#000000;stroke-width:3"
       id="path2493"
       d="M 86.670997,670.529 L 601.498,126.832" />
  </g>
  <g
     inkscape:groupmode="layer"
     id="layer3"
     inkscape:label="Reflet final"
     style="display:inline"
     sodipodi:insensitive="true">
    <path
       style="fill:url(#radialGradient3236);fill-opacity:1"
       d="M 1.5,1.5 L 1.5,460.3679 C 1.5,626.67854 135.81454,761.5 301.49993,761.5 C 467.1854,761.5 601.5,626.67854 601.5,460.3679 L 601.5,1.5 L 1.5,1.5 z"
       id="path2346" />
  </g>
  <g
     inkscape:groupmode="layer"
     id="layer4"
     inkscape:label="Contour final"
     style="display:inline"
     sodipodi:insensitive="true">
    <path
       style="fill:none;fill-opacity:1;stroke:#000000;stroke-width:3;stroke-miterlimit:4;stroke-dasharray:none;stroke-opacity:1"
       d="M 1.5,1.5 L 1.5,460.36794 C 1.5,626.67854 135.81454,761.5 301.49993,761.5 C 467.1854,761.5 601.5,626.67854 601.5,460.36794 L 601.5,1.5 L 1.5,1.5 z"
       id="path3239" />
  </g>
</svg>

<svg xmlns="http://www.w3.org/2000/svg" xmlns:xlink="http://www.w3.org/1999/xlink" height="763" width="603" version="1.0"><defs><radialGradient xlink:href="#a" id="b" gradientUnits="userSpaceOnUse" gradientTransform="matrix(1.21503 0 0 1.26667 -839.192 -490.49)" cx="858.042" cy="579.933" fx="858.042" fy="579.933" r="300"/><linearGradient id="a"><stop style="stop-color:#fff;stop-opacity:.3137255" offset="0"/><stop offset=".19" style="stop-color:#fff;stop-opacity:.25098041"/><stop style="stop-color:#6b6b6b;stop-opacity:.1254902" offset=".6"/><stop style="stop-color:#000;stop-opacity:.1254902" offset="1"/></linearGradient></defs><g style="opacity:1;display:inline"><path d="M1.5 1.5v458.869C1.5 626.68 135.814 761.5 301.5 761.5c165.687 0 300-134.82 300-301.131V1.5H1.5z" style="opacity:1;fill:#fcef3c"/><path d="M1.5 1.5v458.869c0 50.157 12.232 97.441 33.842 139.036L601.498 1.5H1.5z" style="opacity:1;fill:#5ab532"/></g><g style="opacity:1;display:inline"><path style="fill:#5ab532" d="M301.498 565.302c-33.703 0-63.59 22.115-82.199 56.213-7.665 14.045-12.82 30.25-16.73 47.533-2.194 9.699-8.197 44.486-12.672 70.906 34.499 13.889 72.158 21.545 111.602 21.545s77.104-7.656 111.604-21.543c-4.476-26.422-10.479-61.209-12.673-70.908-3.91-17.283-9.065-33.488-16.73-47.533-18.61-34.098-48.499-56.213-82.202-56.213z"/><path style="fill:none;stroke:#000;stroke-width:3" d="M413.102 739.956c-4.476-26.422-10.479-61.209-12.673-70.908-3.91-17.283-9.065-33.488-16.73-47.533-18.607-34.098-48.496-56.213-82.199-56.213-33.703 0-63.59 22.115-82.199 56.213-7.665 14.045-12.82 30.25-16.73 47.533-2.194 9.699-8.197 44.486-12.672 70.906"/><path style="fill:#e20909" d="M601.498 126.832V1.5h-120L4.771 504.9c9.451 63.99 38.959 121.408 81.9 165.629l514.827-543.697z"/><path style="fill:none;stroke:#000;stroke-width:3" d="M481.498 1.5 4.771 504.9M86.671 670.529l514.827-543.697"/></g><g style="display:inline"><path style="fill:url(#b);fill-opacity:1" d="M1.5 1.5v458.868c0 166.31 134.315 301.132 300 301.132s300-134.821 300-301.132V1.5H1.5z"/></g><g style="display:inline"><path style="fill:none;fill-opacity:1;stroke:#000;stroke-width:3;stroke-miterlimit:4;stroke-dasharray:none;stroke-opacity:1" d="M1.5 1.5v458.868c0 166.31 134.315 301.132 300 301.132s300-134.821 300-301.132V1.5H1.5z"/></g></svg>
